Origami/22x22/apps/upwork.svg

<svg width="22" height="22" version="1.1" viewBox="0 0 22 22" xmlns="http://www.w3.org/2000/svg">
 <rect transform="matrix(0,-1,-1,0,0,0)" x="-21" y="-21" width="20" height="20" rx="1.5" ry="1.5" style="fill:#7cca3e"/>
 <path d="m2.5 1c-0.831 0-1.5 0.669-1.5 1.5v0.5c0-0.831 0.669-1.5 1.5-1.5h17c0.831 0 1.5 0.669 1.5 1.5v-0.5c0-0.831-0.669-1.5-1.5-1.5h-17z" style="fill:#ffffff;opacity:.2"/>
 <path d="m1 19.5v0.5c0 0.831 0.669 1.5 1.5 1.5h17c0.831 0 1.5-0.669 1.5-1.5v-0.5c0 0.831-0.669 1.5-1.5 1.5h-17c-0.831 0-1.5-0.669-1.5-1.5z" style="opacity:.2"/>
 <path d="m4 7.5v5c0 1 0 3 3 3s3-2 3.000029-3v-2l1.412082 1.591007c-0.389182 2.131741-0.41211 4.937691-0.41211 5.408993h2c0-0.350671 0.05674-1.585151 0.200196-2.944336 0.681329 0.517784 1.413724 0.944336 2.299802 0.944336 1.516666 0 2.18362-0.711446 2.78113-1.65039 0.59751-0.938945 0.71875-1.988499 0.71875-2.84961-0.295998-1.941988-1.828034-3.4793304-3.49988-3.5-1.499999 0-2.354998 0.101195-2.864258 1.0246015-0.216144 0.3919185-0.416488 0.7993085-0.583984 1.2246095l-2.05173-2.249219v8e-6h-1.9999997v1 4.361859s-0.2669905 0.666586-1.0000273 0.638141-1-0.638141-1-0.638141v-5.361859zm11.499999 2c1.500001 0 1.500001 1 1.586535 1.962161-0.086534 1.037839-0.086534 2.037839-1.586535 2.037839-1.333228-0.105333-1.109008-0.446806-1.873047-1.259765 0.543612-1.87267 0.373048-2.740235 1.873047-2.740235z" style="fill-rule:evenodd;opacity:.2"/>
 <path d="m4 7v5c0 1 0 3 3 3s3-2 3.000029-3v-2l1.412082 1.591007c-0.389182 2.131741-0.41211 4.937691-0.41211 5.408993h2c0-0.350671 0.05674-1.585151 0.200196-2.944336 0.681329 0.517784 1.413724 0.944336 2.299802 0.944336 1.516666 0 2.18362-0.711446 2.78113-1.65039 0.59751-0.938945 0.71875-1.988499 0.71875-2.84961-0.295998-1.9419882-1.828034-3.4793304-3.49988-3.5-1.499999 0-2.354998 0.101195-2.864258 1.0246015-0.216144 0.3919186-0.416488 0.799308-0.583984 1.2246095l-2.05173-2.249219v8e-6h-1.9999997v1 4.361859s-0.2669905 0.666586-1.0000273 0.638141-1-0.638141-1-0.638141v-5.361859zm11.499999 2c1.500001 0 1.500001 1 1.586535 1.962161-0.086534 1.037839-0.086534 2.037839-1.586535 2.037839-1.333228-0.105333-1.109008-0.446806-1.873047-1.259765 0.543612-1.87267 0.373048-2.740235 1.873047-2.740235z" style="fill-rule:evenodd;fill:#ffffff"/>
</svg>

<svg xmlns="http://www.w3.org/2000/svg" width="22" height="22" version="1.1" viewBox="0 0 22 22">
 <rect style="fill:#7cca3e" width="20" height="20" x="-21" y="-21" rx="1.5" ry="1.5" transform="matrix(0,-1,-1,0,0,0)"/>
 <path style="opacity:0.2;fill:#ffffff" d="M 2.5,1 C 1.669,1 1,1.669 1,2.5 L 1,3 C 1,2.169 1.669,1.5 2.5,1.5 l 17,0 C 20.331,1.5 21,2.169 21,3 L 21,2.5 C 21,1.669 20.331,1 19.5,1 l -17,0 z"/>
 <path style="opacity:0.2" d="M 1,19.5 1,20 c 0,0.831 0.669,1.5 1.5,1.5 l 17,0 c 0.831,0 1.5,-0.669 1.5,-1.5 l 0,-0.5 c 0,0.831 -0.669,1.5 -1.5,1.5 l -17,0 C 1.669,21 1,20.331 1,19.5 Z"/>
 <path style="opacity:0.2;fill-rule:evenodd" d="m 4,7.5 0,5 c 0,1 0,3 3,3 3,0 3,-2 3.000029,-3 l 0,-2 1.412082,1.591007 c -0.389182,2.131741 -0.41211,4.937691 -0.41211,5.408993 l 2,0 c 0,-0.350671 0.05674,-1.585151 0.200196,-2.944336 0.681329,0.517784 1.413724,0.944336 2.299802,0.944336 1.516666,0 2.18362,-0.711446 2.78113,-1.65039 C 18.878639,12.910665 18.999879,11.861111 18.999879,11 18.703881,9.058012 17.171845,7.5206696 15.499999,7.5 14,7.5 13.145001,7.601195 12.635741,8.5246015 12.419597,8.91652 12.219253,9.32391 12.051757,9.749211 l -2.05173,-2.249219 0,8e-6 -1.9999997,0 0,1 0,4.361859 c 0,0 -0.2669905,0.666586 -1.0000273,0.638141 C 6.2669632,13.471555 6,12.861859 6,12.861859 L 6,7.5 Z m 11.499999,2 C 17,9.5 17,10.5 17.086534,11.462161 17,12.5 17,13.5 15.499999,13.5 14.166771,13.394667 14.390991,13.053194 13.626952,12.240235 14.170564,10.367565 14,9.5 15.499999,9.5 Z"/>
 <path style="fill:#ffffff;fill-rule:evenodd" d="m 4,7 0,5 c 0,1 0,3 3,3 3,0 3,-2 3.000029,-3 l 0,-2 1.412082,1.591007 C 11.022929,13.722748 11.000001,16.528698 11.000001,17 l 2,0 c 0,-0.350671 0.05674,-1.585151 0.200196,-2.944336 C 13.881526,14.573448 14.613921,15 15.499999,15 c 1.516666,0 2.18362,-0.711446 2.78113,-1.65039 0.59751,-0.938945 0.71875,-1.988499 0.71875,-2.84961 C 18.703881,8.5580118 17.171845,7.0206696 15.499999,7 14,7 13.145001,7.101195 12.635741,8.0246015 12.419597,8.4165201 12.219253,8.8239095 12.051757,9.249211 l -2.05173,-2.249219 0,8e-6 -1.9999997,0 0,1 0,4.361859 C 8.0000273,12.361859 7.7330368,13.028445 7,13 6.2669632,12.971555 6,12.361859 6,12.361859 L 6,7 Z M 15.499999,9 C 17,9 17,10 17.086534,10.962161 17,12 17,13 15.499999,13 14.166771,12.894667 14.390991,12.553194 13.626952,11.740235 14.170564,9.867565 14,9 15.499999,9 Z"/>
</svg>
